X:1
T:My Name in Mother’s Prayer
T:E. M. Herndon, arranged by Peter Philip Bilhorn
T:My Name in Mother’s Prayer
T:Public Domain
T:Public Domain
C:E. M. Herndon, arranged by Peter Philip Bilhorn
Z:Public Domain
%%score ( 1 2 ) ( 3 4 )
L:1/8
M:3/4
K:Eb
V:1 treble 
V:2 treble 
V:3 bass 
V:4 bass 
V:1
 E2 | [EG]>[EG] [EG]3 [EB] | [Ec][EB] [EB]3 [EB] | [DB]3 [DF] [EG][FA] | [EG]4 E2 | %5
w: 1.~’Twas|the days of care-|less youth, when life|was fair and bright,|And ne’er|
w: 2.~I|but lit- tle of|it then, tho’ rev’-|rence touched my heart,|To her|
w: 3.~I|dered on, and heed-|ed not, God’s oft|re- peat- ed call|To turn|
w: 4.~That|ing heart, that soul|so tried, has gone|in- to her rest,|But still|
 [EG]>[EG] [EG]3 [EB] | [Ec]>[EB] [EB]3 [EG] | [DF]3 [DF] [EG][EF] | [DF]3 [DF] [DF][EG] | %9
w: tear, and scarce a|fear o’er cast my|day and night, As,|in the qui- et|
w: love sought from a-|bove for me the|bet- ter part; But|when life’s stern- er|
w: sin, to live for|Him, and trust to|Him my all; But|when at last, con-|
w: me for aye shall|be the mem- ’ry|of her trust. And|when I cross the|
 [FA]3 [GB] [EG][FA] | [DF]4 [DA]2 | [EG]3 [EG] [DF][CE] | [=B,D]3 [B,D] [CE][DF] | %13
w: ev- en- tide, I|passed her|kneel- ing there, That|just one word, my|
w: bat- tles came with|many a|sub- tle snare, Oft|that one word, in|
w: vinced of sin, I|sank in|deep des- pair, My|hope a- woke, when|
w: Jor- dan’s tide, and|meet her|o- ver there, We’ll|praise the Lord, Who|
 [EG]3 [FA] [GB]E | [Ee]4 E2 | [EG]3 [EB] [DA]<[DF] | E4 |] %17
w: name, I heard my|in mo-|prayer. * * *||
w: thought I heard my|in mo-|prayer. * * *||
w: mem- ’ry spoke my|in mo-|prayer. * * *||
w: blessed that word, my|in mo-|prayer. * * *||
V:2
 E2 | x6 | x6 | x6 | x4 E2 | x6 | x6 | x6 | x6 | x6 | x6 | x6 | x6 | x5 E | x4 E2 | x6 | E4 |] %17
w: in||||a|||||||||name|ther’s|||
w: thought||||whose|||||||||name|ther’s|||
w: wan-||||from|||||||||name|ther’s|||
w: plead-||||with|||||||||name|ther’s|||
V:3
 [E,G,]2 | [E,B,]>[E,B,] [E,B,]3 [E,G,] | [E,A,][E,G,] [E,G,]3 [E,G,] | %3
 [B,,F,]3 [B,,B,] [B,,B,][B,,B,] | [E,B,]4 [E,G,]2 | [E,B,]>[E,B,] [E,B,]3 [E,G,] | %6
 [E,A,]>[E,G,] [E,G,]3 [E,B,] | [F,B,]3 [F,B,] [F,=A,][F,A,] | [B,,B,]3 [B,,B,] [B,,B,][B,,B,] | %9
 [B,,B,]3 [B,,B,] [B,,B,][B,,B,] | [B,,B,]4 [B,,F,]2 | [C,E,]3 [C,G,] [C,G,][C,G,] | %12
 [G,,G,]3 [G,,G,] [C,G,][B,,B,] | [E,B,]3 [E,B,] [E,B,][E,G,] | [C,G,]4 (C,_C,) | %15
 [B,,B,]3 [B,,G,] [B,,F,]<[B,,A,] | [E,G,]4 |] %17
V:4
 x2 | x6 | x6 | x6 | x6 | x6 | x6 | x6 | x6 | x6 | x6 | x6 | x6 | x6 | x4 =A,2 | x6 | x4 |] %17

